cursors/src/svg/right_side.svg

<?xml version="1.0" encoding="UTF-8" standalone="no"?>
<svg
   xmlns:dc="http://purl.org/dc/elements/1.1/"
   xmlns:cc="http://creativecommons.org/ns#"
   xmlns:rdf="http://www.w3.org/1999/02/22-rdf-syntax-ns#"
   xmlns:svg="http://www.w3.org/2000/svg"
   xmlns="http://www.w3.org/2000/svg"
   xmlns:sodipodi="http://sodipodi.sourceforge.net/DTD/sodipodi-0.dtd"
   xmlns:inkscape="http://www.inkscape.org/namespaces/inkscape"
   width="32"
   height="32"
   version="1.1"
   viewBox="0 0 32 32"
   id="svg28"
   sodipodi:docname="right_side.svg"
   inkscape:version="0.92.4 5da689c313, 2019-01-14">
  <metadata
     id="metadata32">
    <rdf:RDF>
      <cc:Work
         rdf:about="">
        <dc:format>image/svg+xml</dc:format>
        <dc:type
           rdf:resource="http://purl.org/dc/dcmitype/StillImage" />
      </cc:Work>
    </rdf:RDF>
  </metadata>
  <sodipodi:namedview
     pagecolor="#f4f4f7fff"
     bordercolor="#556666"
     borderopacity="1"
     objecttolerance="10"
     gridtolerance="10"
     guidetolerance="10"
     inkscape:pageopacity="0"
     inkscape:pageshadow="2"
     inkscape:window-width="1366"
     inkscape:window-height="705"
     id="namedview30"
     showgrid="true"
     inkscape:zoom="10.490937"
     inkscape:cx="13.41242"
     inkscape:cy="17.12381"
     inkscape:window-x="0"
     inkscape:window-y="34"
     inkscape:window-maximized="1"
     inkscape:current-layer="svg28">
    <inkscape:grid
       type="xygrid"
       id="grid853" />
  </sodipodi:namedview>
  <defs
     id="defs8">
    <filter
       id="b"
       x="-.55819"
       y="-.12404"
       width="2.1164"
       height="1.2481"
       color-interpolation-filters="sRGB">
      <feGaussianBlur
         stdDeviation="0.93030967"
         id="feGaussianBlur2" />
    </filter>
    <filter
       id="a"
       x="-.15709"
       y="-.15901"
       width="1.3142"
       height="1.318"
       color-interpolation-filters="sRGB">
      <feGaussianBlur
         stdDeviation="0.93030967"
         id="feGaussianBlur5" />
    </filter>
    <filter
       inkscape:collect="always"
       style="color-interpolation-filters:sRGB"
       id="filter887"
       x="-0.10695652"
       width="1.213913"
       y="-0.13666667"
       height="1.2733333">
      <feGaussianBlur
         inkscape:collect="always"
         stdDeviation="1.025"
         id="feGaussianBlur889" />
    </filter>
  </defs>
  <path
     inkscape:connector-curvature="0"
     id="path849"
     d="m 3,8.2031251 a 1.0001,1.0001 0 0 0 -1,1 V 25.203125 a 1.0001,1.0001 0 0 0 1,1 h 1 a 1.0001,1.0001 0 0 0 1,-1 V 9.2031251 a 1.0001,1.0001 0 0 0 -1,-1 z m 13.976562,1.9999999 a 1.0001,1.0001 0 0 0 -0.490234,0.142578 l -9.9999999,6 a 1.0001,1.0001 0 0 0 0,1.714844 l 9.9999999,6 a 1.0001,1.0001 0 0 0 1.28125,-0.216797 l 1.800781,-2.160156 A 1.0001,1.0001 0 0 0 19.441406,20.275391 C 18.529192,19.515897 18.001214,18.392007 18,17.205078 v -0.002 c 0.0021,-1.186638 0.529028,-2.309515 1.441406,-3.068359 a 1.0001,1.0001 0 0 0 0.128906,-1.410157 L 17.767578,10.5625 A 1.0001,1.0001 0 0 0 16.976562,10.203125 Z M 16.779297,12.5 17.537109,13.408203 C 16.626937,14.481793 16.00179,15.772084 16,17.201172 a 1.0001,1.0001 0 0 0 0,0.002 C 16.000767,18.633337 16.624435,19.925394 17.535156,21 L 16.779297,21.904297 8.9433594,17.203125 Z M 22,14.203125 c -1.64501,0 -3,1.35499 -3,3 0,1.64501 1.35499,3 3,3 1.64501,0 3,-1.35499 3,-3 0,-1.64501 -1.35499,-3 -3,-3 z m 0,2 c 0.564129,0 1,0.435871 1,1 0,0.564129 -0.435871,1 -1,1 -0.564129,0 -1,-0.435871 -1,-1 0,-0.564129 0.435871,-1 1,-1 z"
     style="color:#000000;font-style:normal;font-variant:normal;font-weight:normal;font-stretch:normal;font-size:medium;line-height:normal;font-family:sans-serif;font-variant-ligatures:normal;font-variant-position:normal;font-variant-caps:normal;font-variant-numeric:normal;font-variant-alternates:normal;font-feature-settings:normal;text-indent:0;text-align:start;text-decoration:none;text-decoration-line:none;text-decoration-style:solid;text-decoration-color:#000000;letter-spacing:normal;word-spacing:normal;text-transform:none;writing-mode:lr-tb;direction:ltr;text-orientation:mixed;dominant-baseline:auto;baseline-shift:baseline;text-anchor:start;white-space:normal;shape-padding:0;clip-rule:nonzero;display:inline;overflow:visible;visibility:visible;opacity:0.35;isolation:auto;mix-blend-mode:normal;color-interpolation:sRGB;color-interpolation-filters:linearRGB;solid-color:#000000;solid-opacity:1;vector-effect:none;fill:#000000;fill-opacity:1;fill-rule:nonzero;stroke:none;stroke-width:2;stroke-linecap:round;stroke-linejoin:round;stroke-miterlimit:4;stroke-dasharray:none;stroke-dashoffset:0;stroke-opacity:1;paint-order:stroke fill markers;filter:url(#filter887);color-rendering:auto;image-rendering:auto;shape-rendering:auto;text-rendering:auto;enable-background:accumulate"
     transform="matrix(-1,0,0,1,32,0)" />
  <path
     style="color:#000000;font-style:normal;font-variant:normal;font-weight:normal;font-stretch:normal;font-size:medium;line-height:normal;font-family:sans-serif;font-variant-ligatures:normal;font-variant-position:normal;font-variant-caps:normal;font-variant-numeric:normal;font-variant-alternates:normal;font-feature-settings:normal;text-indent:0;text-align:start;text-decoration:none;text-decoration-line:none;text-decoration-style:solid;text-decoration-color:#000000;letter-spacing:normal;word-spacing:normal;text-transform:none;writing-mode:lr-tb;direction:ltr;text-orientation:mixed;dominant-baseline:auto;baseline-shift:baseline;text-anchor:start;white-space:normal;shape-padding:0;clip-rule:nonzero;display:inline;overflow:visible;visibility:visible;opacity:1;isolation:auto;mix-blend-mode:normal;color-interpolation:sRGB;color-interpolation-filters:linearRGB;solid-color:#000000;solid-opacity:1;vector-effect:none;fill:#f4f4f7fff;fill-opacity:1;fill-rule:nonzero;stroke:none;stroke-width:2;stroke-linecap:round;stroke-linejoin:round;stroke-miterlimit:4;stroke-dasharray:none;stroke-dashoffset:0;stroke-opacity:1;paint-order:stroke fill markers;color-rendering:auto;image-rendering:auto;shape-rendering:auto;text-rendering:auto;enable-background:accumulate"
     d="m 29,7.0000001 a 1.0001,1.0001 0 0 1 1,1 V 24 a 1.0001,1.0001 0 0 1 -1,1 H 28 A 1.0001,1.0001 0 0 1 27,24 V 8.0000001 a 1.0001,1.0001 0 0 1 1,-1 z m -13.976562,2 a 1.0001,1.0001 0 0 1 0.490234,0.1425781 l 10,5.9999998 a 1.0001,1.0001 0 0 1 0,1.714844 l -10,6 a 1.0001,1.0001 0 0 1 -1.28125,-0.216797 l -1.800781,-2.160156 a 1.0001,1.0001 0 0 1 0.126953,-1.408203 C 13.470808,18.312772 13.998786,17.188882 14,16.001953 v -0.002 c -0.0021,-1.186638 -0.529028,-2.309515 -1.441406,-3.068359 a 1.0001,1.0001 0 0 1 -0.128906,-1.410157 l 1.802734,-2.1621089 a 1.0001,1.0001 0 0 1 0.791016,-0.359375 z m 0.197265,2.2968749 -0.757812,0.908203 C 15.373063,13.278668 15.99821,14.568959 16,15.998047 a 1.0001,1.0001 0 0 1 0,0.002 c -7.67e-4,1.430212 -0.624435,2.722269 -1.535156,3.796875 l 0.755859,0.90425 L 23.056641,16 Z M 10,13 c 1.64501,0 3,1.35499 3,3 0,1.64501 -1.35499,3 -3,3 -1.6450097,0 -2.9999997,-1.35499 -2.9999997,-3 0,-1.64501 1.35499,-3 2.9999997,-3 z m 0,2 c -0.5641287,0 -0.9999997,0.435871 -0.9999997,1 0,0.564129 0.435871,1 0.9999997,1 0.564129,0 1,-0.435871 1,-1 0,-0.564129 -0.435871,-1 -1,-1 z"
     id="path842"
     inkscape:connector-curvature="0" />
  <path
     inkscape:connector-curvature="0"
     style="opacity:1;fill:#282a33;fill-opacity:1;stroke:none;stroke-width:1.99273682;stroke-linecap:round;stroke-linejoin:round;stroke-miterlimit:4;stroke-dasharray:none;stroke-opacity:1;paint-order:stroke fill markers"
     d="M 29,8.0000001 V 24 H 28 V 8.0000001 Z M 15,10 25,16 15,22 13.199219,19.839844 A 5,5 0 0 0 15,16 5,5 0 0 0 13.197266,12.162109 Z"
     id="rect835" />
  <circle
     r="2"
     cy="16"
     cx="-10"
     id="circle839"
     style="opacity:1;fill:#5294e2;fill-opacity:1;stroke:none;stroke-width:1;stroke-linecap:round;stroke-linejoin:round;stroke-miterlimit:4;stroke-dasharray:none;stroke-opacity:1;paint-order:stroke fill markers"
     transform="scale(-1,1)" />
</svg>

<svg xmlns="http://www.w3.org/2000/svg" width="32" height="32"><defs><filter style="color-interpolation-filters:sRGB" id="a" x="-.107" width="1.214" y="-.137" height="1.273"><feGaussianBlur stdDeviation="1.025"/></filter></defs><path d="M3 8.203a1 1 0 0 0-1 1v16a1 1 0 0 0 1 1h1a1 1 0 0 0 1-1v-16a1 1 0 0 0-1-1zm13.977 2a1 1 0 0 0-.49.143l-10 6a1 1 0 0 0 0 1.715l10 6a1 1 0 0 0 1.28-.217l1.801-2.16a1 1 0 0 0-.127-1.409A4 4 0 0 1 18 17.205v-.002a3.997 3.997 0 0 1 1.441-3.068 1 1 0 0 0 .13-1.41l-1.803-2.162a1 1 0 0 0-.791-.36zm-.198 2.297.758.908c-.91 1.074-1.535 2.364-1.537 3.793a1 1 0 0 0 0 .002c0 1.43.624 2.722 1.535 3.797l-.756.904-7.836-4.7zM22 14.203c-1.645 0-3 1.355-3 3s1.355 3 3 3 3-1.355 3-3-1.355-3-3-3zm0 2c.564 0 1 .436 1 1 0 .564-.436 1-1 1-.564 0-1-.436-1-1 0-.564.436-1 1-1z" style="color:#000;font-style:normal;font-variant:normal;font-weight:400;font-stretch:normal;font-size:medium;line-height:normal;font-family:sans-serif;font-variant-ligatures:normal;font-variant-position:normal;font-variant-caps:normal;font-variant-numeric:normal;font-variant-alternates:normal;font-feature-settings:normal;text-indent:0;text-align:start;text-decoration:none;text-decoration-line:none;text-decoration-style:solid;text-decoration-color:#000;letter-spacing:normal;word-spacing:normal;text-transform:none;writing-mode:lr-tb;direction:ltr;text-orientation:mixed;dominant-baseline:auto;baseline-shift:baseline;text-anchor:start;white-space:normal;shape-padding:0;clip-rule:nonzero;display:inline;overflow:visible;visibility:visible;opacity:.35;isolation:auto;mix-blend-mode:normal;color-interpolation:sRGB;color-interpolation-filters:linearRGB;solid-color:#000;solid-opacity:1;vector-effect:none;fill:#000;fill-opacity:1;fill-rule:nonzero;stroke:none;stroke-width:2;stroke-linecap:round;stroke-linejoin:round;stroke-miterlimit:4;stroke-dasharray:none;stroke-dashoffset:0;stroke-opacity:1;paint-order:stroke fill markers;filter:url(#a);color-rendering:auto;image-rendering:auto;shape-rendering:auto;text-rendering:auto;enable-background:accumulate" transform="matrix(-1 0 0 1 32 0)"/><path style="color:#000;font-style:normal;font-variant:normal;font-weight:400;font-stretch:normal;font-size:medium;line-height:normal;font-family:sans-serif;font-variant-ligatures:normal;font-variant-position:normal;font-variant-caps:normal;font-variant-numeric:normal;font-variant-alternates:normal;font-feature-settings:normal;text-indent:0;text-align:start;text-decoration:none;text-decoration-line:none;text-decoration-style:solid;text-decoration-color:#000;letter-spacing:normal;word-spacing:normal;text-transform:none;writing-mode:lr-tb;direction:ltr;text-orientation:mixed;dominant-baseline:auto;baseline-shift:baseline;text-anchor:start;white-space:normal;shape-padding:0;clip-rule:nonzero;display:inline;overflow:visible;visibility:visible;opacity:1;isolation:auto;mix-blend-mode:normal;color-interpolation:sRGB;color-interpolation-filters:linearRGB;solid-color:#000;solid-opacity:1;vector-effect:none;fill:#f4f4f7fff;fill-opacity:1;fill-rule:nonzero;stroke:none;stroke-width:2;stroke-linecap:round;stroke-linejoin:round;stroke-miterlimit:4;stroke-dasharray:none;stroke-dashoffset:0;stroke-opacity:1;paint-order:stroke fill markers;color-rendering:auto;image-rendering:auto;shape-rendering:auto;text-rendering:auto;enable-background:accumulate" d="M29 7a1 1 0 0 1 1 1v16a1 1 0 0 1-1 1h-1a1 1 0 0 1-1-1V8a1 1 0 0 1 1-1zM15.023 9a1 1 0 0 1 .49.143l10 6a1 1 0 0 1 0 1.714l-10 6a1 1 0 0 1-1.28-.216l-1.801-2.16a1 1 0 0 1 .127-1.409A4 4 0 0 0 14 16.002V16a3.997 3.997 0 0 0-1.441-3.068 1 1 0 0 1-.13-1.41l1.803-2.163A1 1 0 0 1 15.023 9zm.198 2.297-.758.908c.91 1.074 1.535 2.364 1.537 3.793A1 1 0 0 1 16 16c0 1.43-.624 2.722-1.535 3.797l.756.904L23.057 16zM10 13c1.645 0 3 1.355 3 3s-1.355 3-3 3-3-1.355-3-3 1.355-3 3-3zm0 2c-.564 0-1 .436-1 1 0 .564.436 1 1 1 .564 0 1-.436 1-1 0-.564-.436-1-1-1z"/><path style="opacity:1;fill:#282a33;fill-opacity:1;stroke:none;stroke-width:1.99273682;stroke-linecap:round;stroke-linejoin:round;stroke-miterlimit:4;stroke-dasharray:none;stroke-opacity:1;paint-order:stroke fill markers" d="M29 8v16h-1V8zm-14 2 10 6-10 6-1.8-2.16A5 5 0 0 0 15 16a5 5 0 0 0-1.803-3.838z"/><circle r="2" cy="16" cx="-10" style="opacity:1;fill:#5294e2;fill-opacity:1;stroke:none;stroke-width:1;stroke-linecap:round;stroke-linejoin:round;stroke-miterlimit:4;stroke-dasharray:none;stroke-opacity:1;paint-order:stroke fill markers" transform="scale(-1 1)"/></svg>
